static/logos/nissan-glyph-color.svg

<svg width="32" height="32" viewBox="0 0 32 32" fill="none" xmlns="http://www.w3.org/2000/svg">
<path d="M30.899 12.6098C30.6034 12.5254 30.2741 12.4855 29.5805 12.398C26.7098 12.2777 19.6154 11.9958 16.0002 11.9958C12.3851 11.9958 5.29056 12.2775 2.42016 12.398C1.72624 12.4855 1.39664 12.5254 1.10112 12.6098C0.19856 12.8272 0 13.1583 0 13.8188V18.3457C0 19.0064 0.69264 19.4516 1.17008 19.5413C1.64784 19.6318 1.95008 19.6679 2.45264 19.7168C5.02016 19.8793 10.977 20.218 16 20.2234C21.0232 20.2185 26.9797 19.8794 29.5474 19.7168C30.0498 19.6679 30.3522 19.6316 30.8301 19.5413C31.3074 19.4514 32 19.0064 32 18.3457V13.8188C32 13.1583 31.8016 12.8272 30.899 12.6098Z" fill="url(#paint0_linear_1261_222)"/>
<path d="M4.48799 12.7879C5.90047 7.76702 10.5416 4.08305 16.0509 4.08305C21.5443 4.08305 26.176 7.74675 27.6022 12.7475C27.6067 12.7651 27.6097 12.7743 27.6147 12.7913C28.4336 12.6973 29.1672 12.5521 29.6856 12.4107C29.6762 12.3785 29.6738 12.3719 29.6656 12.3402C28.0446 6.38339 22.5633 2 16.0509 2C9.51647 2 4.02079 6.41184 2.41983 12.3981C3.13999 12.5997 3.66751 12.6842 4.48799 12.7879Z" fill="url(#paint1_radial_1261_222)"/>
<path d="M27.5685 19.3684C27.5542 19.413 27.5384 19.4623 27.531 19.4866C26.0291 24.3672 21.4579 27.9169 16.051 27.9169C10.6014 27.9169 6.00144 24.3124 4.536 19.3732C3.64032 19.5352 3.33776 19.5968 2.45264 19.7171C4.09264 25.6449 9.55888 30 16.051 30C22.5459 30 28.0141 25.6403 29.651 19.7077C28.8712 19.6092 28.4118 19.5348 27.5685 19.3684V19.3684Z" fill="url(#paint2_radial_1261_222)"/>
<path d="M4.77632 12.7771C5.11632 12.6336 5.44528 12.4047 5.95808 12.2574C7.48688 8.19871 11.4283 5.30849 16.0507 5.30849C20.6587 5.30849 24.5904 8.18089 26.1288 12.22C26.1342 12.2337 26.1398 12.2504 26.1442 12.2607C26.4088 12.3544 27.1885 12.6774 27.431 12.7855C27.4654 12.7863 27.5389 12.7889 27.6147 12.791C27.6103 12.7765 27.6061 12.7619 27.6022 12.7472C26.1754 7.74812 21.5438 4.08557 16.0507 4.08557C10.5429 4.08557 5.90176 7.76791 4.4888 12.7878C4.5704 12.7879 4.72576 12.7807 4.77632 12.7771V12.7771Z" fill="url(#paint3_radial_1261_222)"/>
<path d="M15.963 4.42506C21.1171 4.42506 25.6859 7.56542 27.4165 12.7417L27.4306 12.7857C27.4574 12.7857 27.5555 12.7893 27.6142 12.7913C27.6096 12.7725 27.6048 12.7615 27.6018 12.7475C26.1749 7.74837 21.5434 4.08582 16.0502 4.08582C10.5424 4.08582 5.90127 7.76815 4.48831 12.788C4.59839 12.7862 4.65135 12.7862 4.77615 12.7772C6.32335 7.86298 10.8469 4.42506 15.963 4.42506V4.42506Z" fill="white"/>
<path d="M27.2763 19.3826C26.9061 19.594 26.4451 19.7974 26.0766 19.9162C26.0717 19.9283 26.0507 19.982 26.0462 19.9945C24.4523 23.922 20.5776 26.6943 16.0509 26.6943C11.4957 26.6943 7.60111 23.8883 6.02575 19.922C5.60191 19.8018 4.96831 19.5065 4.72847 19.3832C4.63871 19.3788 4.59039 19.3762 4.53519 19.3733C6.00063 24.3119 10.6014 27.917 16.051 27.917C21.476 27.917 26.059 24.3449 27.5459 19.4411C27.5491 19.4316 27.5656 19.3777 27.5691 19.3685C27.4832 19.372 27.3518 19.3826 27.2763 19.3826V19.3826Z" fill="url(#paint4_radial_1261_222)"/>
<path d="M30.6426 12.9376C29.8822 12.8431 29.3638 12.8532 27.5117 12.788C27.4275 12.7849 27.3419 12.7823 27.255 12.7791C23.8966 12.6614 18.8518 12.5042 16 12.5042C13.1483 12.5042 8.10368 12.6614 4.7448 12.7791C4.65808 12.7823 4.5728 12.7849 4.4888 12.788C2.63632 12.8532 2.11808 12.8431 1.3576 12.9376C0.59728 13.0329 0 13.3731 0 13.9517V18.1497C0 18.7286 0.71952 19.1974 1.35744 19.1974C1.35744 19.1974 9.4768 19.7096 16 19.7156C22.5234 19.7096 30.6426 19.1974 30.6426 19.1974C31.2805 19.1974 32 18.7286 32 18.1497V13.9517C32 13.3731 31.4029 13.0329 30.6426 12.9376V12.9376Z" fill="url(#paint5_radial_1261_222)"/>
<path d="M27.2763 19.3826C25.6829 24.2127 21.2016 27.5774 16.1397 27.5774C11.0262 27.5774 6.48896 24.4864 4.728 19.3826C4.66336 19.3792 4.59936 19.3766 4.53616 19.3728C6.00128 24.3116 10.6029 27.9168 16.0526 27.9168C21.5042 27.9168 26.1062 24.3093 27.5701 19.3679C27.4738 19.3725 27.376 19.3779 27.2763 19.3826V19.3826Z" fill="white"/>
<path d="M27.2856 19.3823L27.2758 19.3826C26.9056 19.594 26.445 19.7974 26.0762 19.9162C26.0712 19.9283 26.0502 19.982 26.0459 19.9945C25.5416 21.2374 24.8088 22.3645 23.8984 23.325C25.3234 22.2605 26.4856 20.9157 27.2856 19.3823V19.3823Z" fill="#8C8C8C"/>
<path d="M8.51041 23.6375C7.43873 22.5944 6.58561 21.3318 6.02561 19.9217C5.60177 19.8013 4.96833 19.5059 4.72833 19.3826C4.9848 19.9259 5.28717 20.4453 5.63201 20.9348C6.33745 21.8736 7.19249 22.7104 8.16577 23.4184C8.27905 23.4943 8.39393 23.5672 8.51041 23.6375V23.6375Z" fill="#4D4D4D"/>
<path d="M4.53568 19.3735V19.3732L4.532 19.3738C3.6392 19.5355 3.33632 19.5975 2.45248 19.7172C2.52368 19.9755 2.60256 20.23 2.68848 20.482L4.53568 19.3735Z" fill="#252525"/>
<path d="M22.5019 14.7969C22.235 14.1874 22.3297 14.2513 21.7488 14.2356C21.7016 14.2192 21.5757 14.2192 21.4032 14.2192C21.231 14.2192 21.1993 14.2192 21.0579 14.2356C20.5088 14.2356 20.6029 14.2035 20.4147 14.6044C20.4147 14.6044 19.4721 16.7694 19.0645 17.6675L19.0488 17.6995C18.9704 17.8596 19.0176 17.8596 19.1429 17.8596H19.9907C20.0537 17.8596 20.0848 17.8282 20.1005 17.7955C20.1005 17.7955 20.2261 17.5228 20.383 17.1381H22.4549C22.612 17.5071 22.7217 17.7794 22.7217 17.7955C22.7374 17.8437 22.7846 17.8596 22.8315 17.8596H23.7105C23.8361 17.8596 23.8677 17.8764 23.8206 17.7634C23.6633 17.3787 22.6432 15.1332 22.5019 14.7969V14.7969ZM20.6966 16.3683C20.9635 15.727 21.2307 15.1016 21.2307 15.0854C21.2465 15.0532 21.2779 15.0372 21.3248 15.0372C21.3406 15.0208 21.388 15.0208 21.4349 15.0208C21.4664 15.0208 21.5131 15.0208 21.5289 15.0372C21.5601 15.0372 21.5921 15.0532 21.6072 15.1014C21.6705 15.2775 21.9054 15.8231 22.1251 16.3683H20.6966V16.3683ZM9.39551 14.1872C9.47391 14.1872 9.48974 14.2191 9.48974 14.2833V17.7158C9.48974 17.7956 9.47391 17.8283 9.37999 17.8283H8.56367C8.46975 17.8283 8.45407 17.812 8.45407 17.7158V14.2833C8.45407 14.2191 8.46975 14.1872 8.53231 14.1872H9.39551V14.1872ZM7.65327 14.2191C7.74719 14.2191 7.76335 14.251 7.76335 14.3316V17.7479C7.76335 17.8444 7.74719 17.8604 7.65327 17.8604H6.69567C6.13087 17.8604 6.08367 17.8604 5.89551 17.5399C5.50303 16.9146 4.32559 15.0701 4.32559 15.0701V17.7482C4.32559 17.8448 4.30991 17.8605 4.21599 17.8605H3.50943C3.41535 17.8605 3.39951 17.8448 3.39951 17.7482V14.3316C3.39951 14.2513 3.41535 14.2191 3.50943 14.2191H4.32559C4.93775 14.2191 5.01615 14.2032 5.23631 14.524C5.40879 14.8129 6.83711 17.0581 6.83711 17.0581V14.3316C6.83711 14.2513 6.85279 14.2191 6.94719 14.2191H7.65327V14.2191ZM28.6075 14.2191C28.7022 14.2191 28.7176 14.251 28.7176 14.3316V17.7479C28.7176 17.8444 28.7019 17.8604 28.6075 17.8604H27.6509C27.0853 17.8604 27.0381 17.8604 26.8499 17.5399C26.4571 16.9141 25.28 15.0697 25.28 15.0697V17.7481C25.28 17.8445 25.2643 17.8602 25.1699 17.8602H24.464C24.3699 17.8602 24.3537 17.8445 24.3537 17.7481V14.3316C24.3537 14.2513 24.3701 14.2191 24.464 14.2191H25.28C25.8921 14.2191 25.9709 14.2032 26.1902 14.524C26.3787 14.8129 27.7915 17.0581 27.7915 17.0581V14.3316C27.7915 14.2513 27.8073 14.2191 27.9016 14.2191H28.6075V14.2191ZM12.9901 15.615C13.6181 15.6789 14.0734 15.7911 14.1989 16.4007C14.1989 16.4485 14.2147 16.609 14.2147 16.7856C14.2147 16.8981 14.2147 17.0419 14.1832 17.1704C14.0736 17.7477 13.6494 17.8599 12.9905 17.8599H10.3531C10.2589 17.8599 10.243 17.8442 10.243 17.7477V17.1704C10.243 17.074 10.2589 17.058 10.3531 17.058H13.0211C13.1312 17.058 13.1625 17.0261 13.1781 16.9455V16.8011V16.705C13.1622 16.6406 13.1467 16.5444 13.0056 16.5287C12.7072 16.5127 11.8285 16.4323 11.2317 16.3683C10.4625 16.2881 10.2744 15.9516 10.2429 15.6627C10.2272 15.5663 10.2272 15.4381 10.2272 15.3258C10.2272 15.2295 10.2272 15.0853 10.2429 14.9728C10.3529 14.4592 10.7297 14.2191 11.3886 14.2191H13.947C14.0416 14.2191 14.0731 14.2354 14.0731 14.3154V14.909C14.0731 14.9886 14.0416 15.021 13.947 15.005H11.4358C11.3259 15.005 11.279 15.053 11.263 15.1652V15.3096C11.263 15.3898 11.3102 15.4541 11.42 15.4696C11.7189 15.5023 12.6446 15.5824 12.9901 15.615V15.615ZM17.5259 15.615C18.1544 15.6789 18.6093 15.7911 18.735 16.4007C18.735 16.4485 18.7507 16.609 18.7507 16.7856C18.7507 16.8981 18.7507 17.0419 18.7193 17.1704C18.6097 17.7477 18.1861 17.8599 17.5265 17.8599H14.8893C14.795 17.8599 14.7792 17.8442 14.7792 17.7477V17.1704C14.7792 17.074 14.795 17.058 14.8893 17.058H17.5577C17.6675 17.058 17.6984 17.0261 17.7145 16.9455V16.8011V16.705C17.6982 16.6406 17.6672 16.5444 17.5417 16.5287C17.2437 16.5127 16.3646 16.4323 15.7683 16.3683C14.9989 16.2881 14.8265 15.9516 14.7792 15.6627C14.7635 15.5663 14.7635 15.4381 14.7635 15.3258C14.7635 15.2295 14.7635 15.0853 14.7792 14.9728C14.8893 14.4592 15.2659 14.2191 15.9249 14.2191H18.4838C18.5776 14.2191 18.6094 14.2354 18.6094 14.3154V14.909C18.6094 14.9886 18.5776 15.021 18.4838 15.005H15.9721C15.8624 15.005 15.8155 15.053 15.7995 15.1652V15.3096C15.7995 15.3898 15.831 15.4541 15.9568 15.4696C16.255 15.5023 17.1808 15.5824 17.5259 15.615V15.615Z" fill="url(#paint6_radial_1261_222)"/>
<defs>
<linearGradient id="paint0_linear_1261_222" x1="16" y1="2.41325" x2="16" y2="25.2042" gradientUnits="userSpaceOnUse">
<stop offset="0.194" stop-color="white"/>
<stop offset="0.208" stop-color="#F8F8F8"/>
<stop offset="0.366" stop-color="#AEAEAE"/>
<stop offset="0.513" stop-color="#707070"/>
<stop offset="0.647" stop-color="#404040"/>
<stop offset="0.764" stop-color="#1D1D1D"/>
<stop offset="0.86" stop-color="#080808"/>
<stop offset="0.922"/>
</linearGradient>
<radialGradient id="paint1_radial_1261_222" cx="0" cy="0" r="1" gradientUnits="userSpaceOnUse" gradientTransform="translate(7.01711 -3.62887) scale(22.3141 22.8011)">
<stop offset="0.202" stop-color="white"/>
<stop offset="0.382" stop-color="#FDFDFD"/>
<stop offset="0.487" stop-color="#F4F4F4"/>
<stop offset="0.573" stop-color="#E6E6E6"/>
<stop offset="0.648" stop-color="#D2D2D2"/>
<stop offset="0.689" stop-color="#C4C4C4"/>
<stop offset="1" stop-color="#333333"/>
</radialGradient>
<radialGradient id="paint2_radial_1261_222" cx="0" cy="0" r="1" gradientUnits="userSpaceOnUse" gradientTransform="translate(61.0186 32.8926) scale(46.472 47.4863)">
<stop offset="0.202" stop-color="white"/>
<stop offset="0.368" stop-color="#E4E4E4"/>
<stop offset="0.594" stop-color="#C4C4C4"/>
<stop offset="1" stop-color="#333333"/>
</radialGradient>
<radialGradient id="paint3_radial_1261_222" cx="0" cy="0" r="1" gradientUnits="userSpaceOnUse" gradientTransform="translate(12.3768 22.4137) scale(14.267 14.5784)">
<stop offset="0.202" stop-color="white"/>
<stop offset="0.368" stop-color="#E4E4E4"/>
<stop offset="0.594" stop-color="#C4C4C4"/>
<stop offset="1" stop-color="#333333"/>
</radialGradient>
<radialGradient id="paint4_radial_1261_222" cx="0" cy="0" r="1" gradientUnits="userSpaceOnUse" gradientTransform="translate(23.8899 37.3205) scale(27.071 27.6619)">
<stop offset="0.202" stop-color="white"/>
<stop offset="0.368" stop-color="#E4E4E4"/>
<stop offset="0.594" stop-color="#C4C4C4"/>
<stop offset="1" stop-color="#333333"/>
</radialGradient>
<radialGradient id="paint5_radial_1261_222" cx="0" cy="0" r="1" gradientUnits="userSpaceOnUse" gradientTransform="translate(15.7856 4.88443) scale(21.5123 21.9818)">
<stop offset="0.202" stop-color="white"/>
<stop offset="0.397" stop-color="#FDFDFD"/>
<stop offset="0.51" stop-color="#F4F4F4"/>
<stop offset="0.603" stop-color="#E6E6E6"/>
<stop offset="0.684" stop-color="#D2D2D2"/>
<stop offset="0.728" stop-color="#C4C4C4"/>
<stop offset="1" stop-color="#4D4D4D"/>
</radialGradient>
<radialGradient id="paint6_radial_1261_222" cx="0" cy="0" r="1" gradientUnits="userSpaceOnUse" gradientTransform="translate(16.2838 7.08575) scale(14.4898 14.806)">
<stop offset="0.111" stop-color="#4D4D4D"/>
<stop offset="0.248" stop-color="#494949"/>
<stop offset="0.355" stop-color="#404040"/>
<stop offset="0.451" stop-color="#2F2F2F"/>
<stop offset="0.541" stop-color="#181818"/>
<stop offset="0.611"/>
</radialGradient>
</defs>
</svg>

<svg xmlns="http://www.w3.org/2000/svg" width="64" height="64" fill="none" viewBox="0 0 32 32"><path fill="url(#a)" d="M30.899 12.61c-.296-.085-.625-.124-1.319-.212-2.87-.12-9.965-.402-13.58-.402s-10.71.281-13.58.402c-.694.088-1.023.127-1.319.212C.2 12.827 0 13.158 0 13.819v4.527c0 .66.693 1.106 1.17 1.195.478.09.78.127 1.283.176 2.567.162 8.524.501 13.547.506 5.023-.005 10.98-.344 13.547-.506.503-.05.805-.085 1.283-.176S32 19.006 32 18.346v-4.527c0-.66-.198-.992-1.101-1.21"/><path fill="url(#b)" d="M4.488 12.788C5.9 7.767 10.542 4.083 16.051 4.083c5.493 0 10.125 3.664 11.551 8.665l.013.043c.819-.094 1.552-.239 2.07-.38l-.02-.07C28.046 6.382 22.564 2 16.052 2 9.516 2 4.02 6.412 2.42 12.398c.72.202 1.248.286 2.068.39"/><path fill="url(#c)" d="m27.569 19.368-.038.119c-1.502 4.88-6.073 8.43-11.48 8.43-5.45 0-10.05-3.605-11.515-8.544-.896.162-1.198.224-2.083.344C4.093 25.645 9.559 30 16.05 30c6.495 0 11.963-4.36 13.6-10.292-.78-.099-1.24-.173-2.082-.34"/><path fill="url(#d)" d="M4.776 12.777c.34-.143.67-.372 1.182-.52a10.77 10.77 0 0 1 10.093-6.949c4.608 0 8.54 2.873 10.078 6.912.005.014.01.03.015.04.265.094 1.045.417 1.287.526l.184.005-.013-.044c-1.427-4.999-6.058-8.661-11.551-8.661-5.508 0-10.15 3.682-11.562 8.702.081 0 .237-.007.287-.01"/><path fill="#fff" d="M15.963 4.425c5.154 0 9.723 3.14 11.454 8.317l.014.044.183.005q-.007-.025-.012-.043c-1.427-5-6.059-8.662-11.552-8.662-5.508 0-10.149 3.682-11.562 8.702.11-.002.163-.002.288-.01 1.547-4.915 6.07-8.353 11.187-8.353"/><path fill="url(#e)" d="M27.276 19.383a7 7 0 0 1-1.2.533l-.03.078a10.775 10.775 0 0 1-9.995 6.7c-4.555 0-8.45-2.806-10.025-6.772-.424-.12-1.058-.416-1.298-.539l-.193-.01c1.466 4.939 6.066 8.544 11.516 8.544 5.425 0 10.008-3.572 11.495-8.476l.023-.072c-.086.003-.217.014-.293.014"/><path fill="url(#f)" d="M30.643 12.938c-.76-.095-1.28-.085-3.131-.15l-.257-.009c-3.358-.118-8.403-.275-11.255-.275s-7.896.157-11.255.275l-.256.009c-1.853.065-2.37.055-3.131.15S0 13.373 0 13.952v4.198c0 .579.72 1.047 1.357 1.047 0 0 8.12.513 14.643.519 6.523-.006 14.643-.519 14.643-.519.637 0 1.357-.468 1.357-1.047v-4.198c0-.579-.597-.92-1.357-1.014"/><path fill="#fff" d="M27.276 19.383c-1.593 4.83-6.074 8.194-11.136 8.194-5.114 0-9.651-3.09-11.412-8.194l-.192-.01c1.465 4.939 6.067 8.544 11.517 8.544 5.451 0 10.053-3.608 11.517-8.55z"/><path fill="#8C8C8C" d="M27.286 19.382h-.01a7 7 0 0 1-1.2.534l-.03.078a10.7 10.7 0 0 1-2.148 3.331 11.7 11.7 0 0 0 3.388-3.943"/><path fill="#4D4D4D" d="M8.51 23.638a10.7 10.7 0 0 1-2.484-3.716c-.424-.12-1.058-.416-1.298-.54q.387.817.904 1.553c.705.939 1.56 1.775 2.534 2.483q.17.114.344.22"/><path fill="#252525" d="M4.536 19.374h-.004c-.893.162-1.196.224-2.08.343q.107.388.236.765z"/><path fill="url(#g)" d="M22.502 14.797c-.267-.61-.172-.546-.753-.561-.047-.017-.173-.017-.346-.017-.172 0-.204 0-.345.017-.55 0-.455-.033-.643.368 0 0-.943 2.165-1.35 3.064l-.016.032c-.079.16-.031.16.094.16h.848c.063 0 .094-.032.11-.064 0 0 .125-.273.282-.658h2.072c.157.37.267.641.267.657.015.049.063.065.11.065h.878c.126 0 .158.016.11-.097-.157-.384-1.177-2.63-1.318-2.966m-1.805 1.571c.267-.641.534-1.266.534-1.283q.023-.048.094-.048c.016-.016.063-.016.11-.016.031 0 .078 0 .094.016.031 0 .063.016.078.064.064.176.298.722.518 1.267zm-11.301-2.18c.078 0 .094.031.094.095v3.433c0 .08-.016.112-.11.112h-.816c-.094 0-.11-.016-.11-.112v-3.433c0-.064.016-.096.078-.096zm-1.743.031c.094 0 .11.032.11.113v3.416c0 .096-.016.112-.11.112h-.957c-.565 0-.612 0-.8-.32-.393-.625-1.57-2.47-1.57-2.47v2.678c0 .097-.016.112-.11.112h-.707c-.094 0-.11-.015-.11-.112v-3.416c0-.08.016-.113.11-.113h.817c.612 0 .69-.016.91.305.173.289 1.601 2.534 1.601 2.534v-2.726c0-.08.016-.113.11-.113zm20.955 0c.094 0 .11.032.11.113v3.416c0 .096-.016.112-.11.112h-.957c-.566 0-.613 0-.801-.32-.393-.626-1.57-2.47-1.57-2.47v2.678c0 .096-.016.112-.11.112h-.706c-.094 0-.11-.015-.11-.112v-3.416c0-.08.016-.113.11-.113h.816c.612 0 .69-.016.91.305.189.289 1.601 2.534 1.601 2.534v-2.726c0-.08.016-.113.11-.113zM12.99 15.615c.628.064 1.083.176 1.209.786 0 .047.016.208.016.385 0 .112 0 .256-.032.384-.11.578-.534.69-1.192.69h-2.638c-.094 0-.11-.016-.11-.112v-.578c0-.096.016-.112.11-.112h2.668c.11 0 .141-.032.157-.113v-.24c-.016-.064-.031-.16-.172-.176a50 50 0 0 1-1.774-.16c-.77-.08-.958-.417-.99-.706-.015-.097-.015-.225-.015-.337 0-.097 0-.24.016-.353.11-.514.487-.754 1.146-.754h2.558c.095 0 .126.016.126.096v.594c0 .08-.031.112-.126.096h-2.511c-.11 0-.157.048-.173.16v.145c0 .08.047.144.157.16.299.032 1.225.112 1.57.145m4.536 0c.628.064 1.083.176 1.209.786 0 .047.016.208.016.385 0 .112 0 .256-.032.384-.11.578-.533.69-1.193.69H14.89c-.094 0-.11-.016-.11-.112v-.578c0-.096.016-.112.11-.112h2.669c.11 0 .14-.032.157-.113v-.24c-.017-.064-.048-.16-.173-.176a50 50 0 0 1-1.774-.16c-.77-.08-.942-.417-.989-.706-.015-.097-.015-.225-.015-.337 0-.097 0-.24.015-.353.11-.514.487-.754 1.146-.754h2.559c.094 0 .125.016.125.096v.594c0 .08-.031.112-.125.096h-2.512c-.11 0-.156.048-.172.16v.145c0 .08.031.144.157.16.298.032 1.224.112 1.569.145"/><defs><radialGradient id="b" cx="0" cy="0" r="1" gradientTransform="matrix(22.3141 0 0 22.8011 7.017 -3.629)" gradientUnits="userSpaceOnUse"><stop offset=".202" stop-color="#fff"/><stop offset=".382" stop-color="#FDFDFD"/><stop offset=".487" stop-color="#F4F4F4"/><stop offset=".573" stop-color="#E6E6E6"/><stop offset=".648" stop-color="#D2D2D2"/><stop offset=".689" stop-color="#C4C4C4"/><stop offset="1" stop-color="#333"/></radialGradient><radialGradient id="c" cx="0" cy="0" r="1" gradientTransform="matrix(46.472 0 0 47.4863 61.019 32.893)" gradientUnits="userSpaceOnUse"><stop offset=".202" stop-color="#fff"/><stop offset=".368" stop-color="#E4E4E4"/><stop offset=".594" stop-color="#C4C4C4"/><stop offset="1" stop-color="#333"/></radialGradient><radialGradient id="d" cx="0" cy="0" r="1" gradientTransform="matrix(14.267 0 0 14.5784 12.377 22.414)" gradientUnits="userSpaceOnUse"><stop offset=".202" stop-color="#fff"/><stop offset=".368" stop-color="#E4E4E4"/><stop offset=".594" stop-color="#C4C4C4"/><stop offset="1" stop-color="#333"/></radialGradient><radialGradient id="e" cx="0" cy="0" r="1" gradientTransform="matrix(27.071 0 0 27.6619 23.89 37.32)" gradientUnits="userSpaceOnUse"><stop offset=".202" stop-color="#fff"/><stop offset=".368" stop-color="#E4E4E4"/><stop offset=".594" stop-color="#C4C4C4"/><stop offset="1" stop-color="#333"/></radialGradient><radialGradient id="f" cx="0" cy="0" r="1" gradientTransform="matrix(21.5123 0 0 21.9818 15.786 4.884)" gradientUnits="userSpaceOnUse"><stop offset=".202" stop-color="#fff"/><stop offset=".397" stop-color="#FDFDFD"/><stop offset=".51" stop-color="#F4F4F4"/><stop offset=".603" stop-color="#E6E6E6"/><stop offset=".684" stop-color="#D2D2D2"/><stop offset=".728" stop-color="#C4C4C4"/><stop offset="1" stop-color="#4D4D4D"/></radialGradient><radialGradient id="g" cx="0" cy="0" r="1" gradientTransform="matrix(14.4898 0 0 14.806 16.284 7.086)" gradientUnits="userSpaceOnUse"><stop offset=".111" stop-color="#4D4D4D"/><stop offset=".248" stop-color="#494949"/><stop offset=".355" stop-color="#404040"/><stop offset=".451" stop-color="#2F2F2F"/><stop offset=".541" stop-color="#181818"/><stop offset=".611"/></radialGradient><linearGradient id="a" x1="16" x2="16" y1="2.413" y2="25.204" gradientUnits="userSpaceOnUse"><stop offset=".194" stop-color="#fff"/><stop offset=".208" stop-color="#F8F8F8"/><stop offset=".366" stop-color="#AEAEAE"/><stop offset=".513" stop-color="#707070"/><stop offset=".647" stop-color="#404040"/><stop offset=".764" stop-color="#1D1D1D"/><stop offset=".86" stop-color="#080808"/><stop offset=".922"/></linearGradient></defs></svg>
